X: 13962
T: Franc A'Phoill
R: jig
M: 6/8
K: Gmajor
|:ADD BAG|(3AAA G FED|ADd cAF|(3EFG G Gdc|
AFD BAG|(3AAA G FED|CEG cGE|1 GAF Gdc:|2 GAF Gfe||
|:dfa afd|d^cd =cAG|FGA cAF|GAF GED|
dfa afd|g2 a fec|dfe dAF|GAF GED:|
|:dfe dfe|dAG FED|dfe dAF|GAF GED|
dfd cec|ABG AFD|CEG cGE|1 GAF GBc:|2 GAF Gfe||
|:dDD cDD|BDD AFD|dDD cAF|GAF GED|
dDD cDD|BDD AFD|CEG cGE|1 GAF Gfe:|2 GAF Gdc||

